!!!SOCIAL_FUNCTION:	isleta
!!!PDT:	1957
!!!OTL: No_44_It_Is_Raining.krn
!!!LING_GROUP: Keresan
!!!LANG: Tone
!!!REG: Southwest
**kern
*staff1
=1-
*clefF4
*k[b-e-]
*M3/4
4B-\
4B-\
8.B-\L
16G\Jk
=2
4B-\
4B-\
8B-\
8r
=3!|:
*M2/4
4B-\
16B-\LK
8.G\J
=4
4.B-\
16B-\LL
16G\JJ
=5
4F\
16F\LK
8.D\J
=6
4G\
8F\L
16F\L
16D\JJ
=7
*M3/4
4BB-/
8BB-/L
8BB-/J
8r
8D\
=8
*M2/4
4F\
16F\LK
8.D\J
=9
4G\
8F\L
16F\L
16D\JJ
=10
*M3/4
4BB-/
8BB-/L
[8BB-/J
8BB-/L]
8D/J
=11
4F\
16F\LL
16D\J
8BB-\J
8BB-/
8r
=12
*M2/4
8BB-/L
8D/J
8F\L
16F\L
16D\JJ
=13
16F\LL
16D\J
8BB-\J
8BB-/L
8BB-/J
=14
16D/LK
8.BB-/J
4BB-/
=15
8r
8BB-/
4BB-/
=16:|!
8r
8BB-/
8.BB-/L
16BB-/Jk
=17
4F\
16F\LK
8.D\J
=18
4G\
8F\L
16F\L
16D\JJ
=19
*M3/4
4BB-/
8BB-/L
8BB-/J
8r
8D\
=20
*M3/8
8.F\L
16D\L
16F\
16D\JJ
=21
4BB-/
8r
=22
*M2/4
8BB-/L
8D/J
8F\L
16F\L
16D\JJ
=23
16F\LL
16D\J
8BB-\J
8BB-/L
8BB-/J
=24
16D/LK
8.BB-/J
4BB-/
=25:|!
*M3/4
2r
8F/L
8BB-/J
=26
*M2/4
4B-\
16B-\LK
8.G\J
=27
4.B-\
16B-\LL
16G\JJ
=28
4F\
16F\LK
8.D\J
=29
4G\
8F\L
16F\L
16D\JJ
=30
*M3/4
4BB-/
8BB-/L
8BB-/J
8r
8D\
=31
4F\
8F\L
16F\L
16D\JJ
8BB-/
8r
=32
8BB-/L
8D/J
8F\L
8F\J
16D/LL
16BB-/J
8BB-/J
=33
8D\L
8F\J
16D/LK
8.BB-/J
8BB-/
8r
=34
*M2/4
8BB-/L
8D/J
8BB-/L
8GG/J
=35
8BB-/L
8BB-/J
8BB-/L
8BB-/J
=36
*M3/4
8BB-/L
8F/J
16F\LK
8.D\J
8BB-/
8r
=37
16D/LL
16BB-/J
8BB-/J
16D/LL
16BB-/
16.BB-/
32BB-/JJk
8D\L
8F\J
=38
8BB-/L
8BB-/J
8BB-/L
8BB-/J
8BB-/L
8BB-/J
==
*-
